.local/share/icons/Gruvbox-Plus-Dark/apps/16/urmsimulator.svg

<svg width="16" height="16" version="1.1" xmlns="http://www.w3.org/2000/svg">
  <defs>
    <style id="current-color-scheme" type="text/css">.ColorScheme-Text { color:#ebdbb2; } .ColorScheme-Highlight { color:#458588; }</style>
  </defs>
  <path class="ColorScheme-Text" d="m4.484 5.595v3.591c0 0.8661-0.4282 1.481-2.242 1.481-1.815 0-2.242-0.6165-2.242-1.481v-3.591c0-0.189 0.08462-0.262 0.261-0.262h1.139c0.1831 0 0.262 0.07885 0.262 0.262v3.308c0 0.3386 0.3845 0.341 0.595 0.341 0.2255 0 0.602-0.00534 0.602-0.341v-3.308c0-0.189 0.08462-0.262 0.261-0.262h1.103c0.1854 0 0.261 0.08035 0.261 0.262zm3.15 1.044h-0.545v0.929h0.545c0.1253 0 0.21-0.03267 0.254-0.098 0.04333-0.06533 0.065-0.1463 0.065-0.243v-0.247c0-0.09667-0.02167-0.1777-0.065-0.243-0.044-0.06533-0.1287-0.098-0.254-0.098zm-0.806 3.919h-1.117c-0.1811 0-0.262-0.07715-0.262-0.261v-4.702c0-0.1831 0.07885-0.262 0.262-0.262h2.416c0.542 0 0.9157 0.1127 1.121 0.338 0.2053 0.2247 0.308 0.516 0.308 0.874v0.334c0 0.2033-0.03 0.3763-0.09 0.519-0.06067 0.1427-0.166 0.2453-0.316 0.308 0.2613 0.02933 0.473 0.1357 0.635 0.319 0.162 0.184 0.243 0.4283 0.243 0.733v1.539c0 0.1898-0.0869 0.261-0.261 0.261h-1.125c-0.1741 0-0.261-0.07113-0.261-0.261v-1.111c0-0.2571-0.1188-0.312-0.276-0.312h-1.016v1.423c0 0.1821-0.07733 0.261-0.261 0.261zm5.355 0h-1.081c-0.1838 0-0.261-0.07898-0.261-0.261v-4.702c0-0.1816 0.07555-0.262 0.261-0.262h1.168c0.1482 0 0.2443 0.05784 0.334 0.218l0.653 1.183c0.06016 0.1086 0.08572 0.123 0.131 0.123h0.065c0.04772 0 0.07015-0.01612 0.131-0.123l0.645-1.183c0.09379-0.1648 0.1914-0.218 0.334-0.218h1.176c0.1763 0 0.261 0.07297 0.261 0.262v4.702c0 0.1898-0.08691 0.261-0.261 0.261h-1.118c-0.1741 0-0.261-0.07113-0.261-0.261v-2.555l-0.428 0.791c-0.08105 0.1546-0.1924 0.233-0.385 0.233h-0.29c-0.186 0-0.3001-0.07303-0.384-0.233l-0.429-0.791v2.555c0 0.1821-0.07729 0.261-0.261 0.261z" fill="currentColor"/>
</svg>

<svg xmlns="http://www.w3.org/2000/svg" style="isolation:isolate" width="16" height="16" viewBox="0 0 16 16">
 <defs>
  <style id="current-color-scheme" type="text/css">
   .ColorScheme-Text { color:#ebdbb2; } .ColorScheme-Highlight { color:#458588; }
  </style>
  <linearGradient id="arrongin" x1="0%" x2="0%" y1="0%" y2="100%">
   <stop offset="0%" style="stop-color:#d79921; stop-opacity:1"/>
   <stop offset="100%" style="stop-color:#b57614; stop-opacity:1"/>
  </linearGradient>
  <linearGradient id="aurora" x1="0%" x2="0%" y1="0%" y2="100%">
   <stop offset="0%" style="stop-color:#83a598; stop-opacity:1"/>
   <stop offset="100%" style="stop-color:#b16286; stop-opacity:1"/>
  </linearGradient>
  <linearGradient id="fitdance" x1="0%" x2="0%" y1="0%" y2="100%">
   <stop offset="0%" style="stop-color:#8ec07c; stop-opacity:1"/>
   <stop offset="100%" style="stop-color:#458588; stop-opacity:1"/>
  </linearGradient>
  <linearGradient id="oomox" x1="0%" x2="0%" y1="0%" y2="100%">
   <stop offset="0%" style="stop-color:#458588; stop-opacity:1"/>
   <stop offset="100%" style="stop-color:#928374; stop-opacity:1"/>
  </linearGradient>
  <linearGradient id="rainblue" x1="0%" x2="0%" y1="0%" y2="100%">
   <stop offset="0%" style="stop-color:#b8bb26; stop-opacity:1"/>
   <stop offset="100%" style="stop-color:#076678; stop-opacity:1"/>
  </linearGradient>
  <linearGradient id="sunrise" x1="0%" x2="0%" y1="0%" y2="100%">
   <stop offset="0%" style="stop-color: #fe8019; stop-opacity:1"/>
   <stop offset="100%" style="stop-color: #fabd2f; stop-opacity:1"/>
  </linearGradient>
  <linearGradient id="telinkrin" x1="0%" x2="0%" y1="0%" y2="100%">
   <stop offset="0%" style="stop-color: #83a598; stop-opacity:1"/>
   <stop offset="100%" style="stop-color: #83a598; stop-opacity:1"/>
  </linearGradient>
  <linearGradient id="60spsycho" x1="0%" x2="0%" y1="0%" y2="100%">
   <stop offset="0%" style="stop-color: #fb4934; stop-opacity:1"/>
   <stop offset="25%" style="stop-color: #fabd2f; stop-opacity:1"/>
   <stop offset="50%" style="stop-color: #fe8019; stop-opacity:1"/>
   <stop offset="100%" style="stop-color: #689d6a; stop-opacity:1"/>
  </linearGradient>
  <linearGradient id="90ssummer" x1="0%" x2="0%" y1="0%" y2="100%">
   <stop offset="0%" style="stop-color: #b16286; stop-opacity:1"/>
   <stop offset="20%" style="stop-color: #8ec07c; stop-opacity:1"/>
   <stop offset="50%" style="stop-color: #fabd2f; stop-opacity:1"/>
   <stop offset="100%" style="stop-color: #458588; stop-opacity:1"/>
  </linearGradient>
  <linearGradient id="cyberneon" x1="0%" x2="0%" y1="0%" y2="100%">
    <stop offset="0" style="stop-color:#83a598; stop-opacity:1"/>
    <stop offset="1" style="stop-color:#b16286; stop-opacity:1"/>
  </linearGradient>
 </defs>
 <path style="fill:currentColor" class="ColorScheme-Text" fill-rule="evenodd" d="M 4.484 5.595 L 4.484 9.186 L 4.484 9.186 Q 4.484 9.52 4.386 9.792 L 4.386 9.792 L 4.386 9.792 Q 4.288 10.064 4.038 10.257 L 4.038 10.257 L 4.038 10.257 Q 3.788 10.449 3.352 10.558 L 3.352 10.558 L 3.352 10.558 Q 2.917 10.667 2.242 10.667 L 2.242 10.667 L 2.242 10.667 Q 1.567 10.667 1.132 10.558 L 1.132 10.558 L 1.132 10.558 Q 0.697 10.449 0.446 10.257 L 0.446 10.257 L 0.446 10.257 Q 0.196 10.064 0.098 9.792 L 0.098 9.792 L 0.098 9.792 Q 0 9.52 0 9.186 L 0 9.186 L 0 5.595 L 0 5.595 Q 0 5.457 0.062 5.395 L 0.062 5.395 L 0.062 5.395 Q 0.123 5.333 0.261 5.333 L 0.261 5.333 L 1.4 5.333 L 1.4 5.333 Q 1.538 5.333 1.6 5.395 L 1.6 5.395 L 1.6 5.395 Q 1.662 5.457 1.662 5.595 L 1.662 5.595 L 1.662 8.903 L 1.662 8.903 Q 1.662 9.049 1.771 9.146 L 1.771 9.146 L 1.771 9.146 Q 1.879 9.244 2.257 9.244 L 2.257 9.244 L 2.257 9.244 Q 2.641 9.244 2.75 9.146 L 2.75 9.146 L 2.75 9.146 Q 2.859 9.049 2.859 8.903 L 2.859 8.903 L 2.859 5.595 L 2.859 5.595 Q 2.859 5.457 2.921 5.395 L 2.921 5.395 L 2.921 5.395 Q 2.982 5.333 3.12 5.333 L 3.12 5.333 L 4.223 5.333 L 4.223 5.333 Q 4.361 5.333 4.423 5.395 L 4.423 5.395 L 4.423 5.395 Q 4.484 5.457 4.484 5.595 L 4.484 5.595 Z M 7.634 6.639 L 7.089 6.639 L 7.089 7.568 L 7.634 7.568 L 7.634 7.568 Q 7.822 7.568 7.888 7.47 L 7.888 7.47 L 7.888 7.47 Q 7.953 7.372 7.953 7.227 L 7.953 7.227 L 7.953 6.98 L 7.953 6.98 Q 7.953 6.835 7.888 6.737 L 7.888 6.737 L 7.888 6.737 Q 7.822 6.639 7.634 6.639 L 7.634 6.639 Z M 6.828 10.558 L 6.828 10.558 L 5.711 10.558 L 5.711 10.558 Q 5.573 10.558 5.511 10.496 L 5.511 10.496 L 5.511 10.496 Q 5.449 10.434 5.449 10.297 L 5.449 10.297 L 5.449 5.595 L 5.449 5.595 Q 5.449 5.457 5.511 5.395 L 5.511 5.395 L 5.511 5.395 Q 5.573 5.333 5.711 5.333 L 5.711 5.333 L 8.127 5.333 L 8.127 5.333 Q 8.94 5.333 9.248 5.671 L 9.248 5.671 L 9.248 5.671 Q 9.556 6.008 9.556 6.545 L 9.556 6.545 L 9.556 6.879 L 9.556 6.879 Q 9.556 7.184 9.466 7.398 L 9.466 7.398 L 9.466 7.398 Q 9.375 7.612 9.15 7.706 L 9.15 7.706 L 9.15 7.706 Q 9.542 7.75 9.785 8.025 L 9.785 8.025 L 9.785 8.025 Q 10.028 8.301 10.028 8.758 L 10.028 8.758 L 10.028 10.297 L 10.028 10.297 Q 10.028 10.434 9.966 10.496 L 9.966 10.496 L 9.966 10.496 Q 9.905 10.558 9.767 10.558 L 9.767 10.558 L 8.642 10.558 L 8.642 10.558 Q 8.504 10.558 8.443 10.496 L 8.443 10.496 L 8.443 10.496 Q 8.381 10.434 8.381 10.297 L 8.381 10.297 L 8.381 9.186 L 8.381 9.186 Q 8.381 9.027 8.319 8.951 L 8.319 8.951 L 8.319 8.951 Q 8.258 8.874 8.105 8.874 L 8.105 8.874 L 7.089 8.874 L 7.089 10.297 L 7.089 10.297 Q 7.089 10.434 7.028 10.496 L 7.028 10.496 L 7.028 10.496 Q 6.966 10.558 6.828 10.558 Z M 12.183 10.558 L 12.183 10.558 L 11.102 10.558 L 11.102 10.558 Q 10.964 10.558 10.902 10.496 L 10.902 10.496 L 10.902 10.496 Q 10.841 10.434 10.841 10.297 L 10.841 10.297 L 10.841 5.595 L 10.841 5.595 Q 10.841 5.457 10.902 5.395 L 10.902 5.395 L 10.902 5.395 Q 10.964 5.333 11.102 5.333 L 11.102 5.333 L 12.27 5.333 L 12.27 5.333 Q 12.386 5.333 12.463 5.384 L 12.463 5.384 L 12.463 5.384 Q 12.539 5.435 12.604 5.551 L 12.604 5.551 L 13.257 6.734 L 13.257 6.734 Q 13.293 6.799 13.319 6.828 L 13.319 6.828 L 13.319 6.828 Q 13.344 6.857 13.388 6.857 L 13.388 6.857 L 13.453 6.857 L 13.453 6.857 Q 13.497 6.857 13.522 6.828 L 13.522 6.828 L 13.522 6.828 Q 13.547 6.799 13.584 6.734 L 13.584 6.734 L 14.229 5.551 L 14.229 5.551 Q 14.295 5.435 14.371 5.384 L 14.371 5.384 L 14.371 5.384 Q 14.447 5.333 14.563 5.333 L 14.563 5.333 L 15.739 5.333 L 15.739 5.333 Q 15.877 5.333 15.938 5.395 L 15.938 5.395 L 15.938 5.395 Q 16 5.457 16 5.595 L 16 5.595 L 16 10.297 L 16 10.297 Q 16 10.434 15.938 10.496 L 15.938 10.496 L 15.938 10.496 Q 15.877 10.558 15.739 10.558 L 15.739 10.558 L 14.621 10.558 L 14.621 10.558 Q 14.483 10.558 14.422 10.496 L 14.422 10.496 L 14.422 10.496 Q 14.36 10.434 14.36 10.297 L 14.36 10.297 L 14.36 7.742 L 13.932 8.533 L 13.932 8.533 Q 13.867 8.657 13.776 8.711 L 13.776 8.711 L 13.776 8.711 Q 13.685 8.766 13.547 8.766 L 13.547 8.766 L 13.257 8.766 L 13.257 8.766 Q 13.119 8.766 13.029 8.711 L 13.029 8.711 L 13.029 8.711 Q 12.938 8.657 12.873 8.533 L 12.873 8.533 L 12.444 7.742 L 12.444 10.297 L 12.444 10.297 Q 12.444 10.434 12.383 10.496 L 12.383 10.496 L 12.383 10.496 Q 12.321 10.558 12.183 10.558 Z"/>
</svg>
